X: 174
T: No_83_Song_of_a_Scalp_Dance.krn
N: Derived from No_83_Song_of_a_Scalp_Dance.krn
%%abc-version 2.0
%%abcx-abcm2ps-target-version 5.9.1 (29 Sep 2008)
%%abc-creator hum2abc beta
%%abcx-conversion-date 2019/03/15 08:29:13
%%humdrum-veritas 2143566855
%%humdrum-veritas-data 2679567524
%%linebreak <none>
%%barnumbers 0
L: 1/8
M: 2/4
%%staves {1 2}
V: 1 clef=bass
V: 2 clef=bass
K: Eb
[V:1] CC [I:setbarnb 1]| 
[V:2] z2 | 
[V:1] C4 | 
[V:2] G,,G,, G,,G,, | 
[V:1] C/B,3/ B,3/G,/ ||  
[V:2] G,,G,, G,,G,, ||  
[V:1] [M:3/4]G,2G,2B,B, ]|:  
[V:2] [M:3/4]z6 ]|:  
[V:1] [M:2/4]G,4 | 
[V:2] [M:2/4]z4 | 
[V:1] F,F, F,3/E,/ ||  
[V:2] z4 ||  
[V:1] [M:3/4]E,2C,2E,E, ||  
[V:2] [M:3/4]z6 ||  
[V:1] [M:2/4]C,4 | 
[V:2] [M:2/4]z4 | 
[V:1] B,,B,, B,,3/B,,/ ||  
[V:2] z4 ||  
[V:1] [M:3/4]B,,2B,,2C,C, ||  
[V:2] [M:3/4]z6 ||  
[V:1] [M:2/4]B,,4 | 
[V:2] [M:2/4]z4 | 
[V:1] G,,G,, G,,3/G,,/ | 
[V:2] z4 | 
[V:1] G,,2G,,2 | 
[V:2] z4 | 
[V:1] z2CC | 
[V:2] z4 | 
[V:1] B,3B, | 
[V:2] z4 | 
[V:1] B,2B,2 | 
[V:2] z4 | 
[V:1] CC B,3/G,/ | 
[V:2] z4 | 
[V:1] G,4- | 
[V:2] z4 | 
[V:1] G,2G,G, | 
[V:2] z4 | 
[V:1] B,3/G,/G,2 | 
[V:2] z4 | 
[V:1] G,4- | 
[V:2] z4 | 
[V:1] G,2B,B, :|]  
[V:2] z4 :|]  



